X:1
T:Title
%%score { ( 1 3 ) | 2 }
L:1/8
M:4/4
K:G
V:1 treble nm="Grand Piano"
V:3 treble 
V:2 bass 
V:1
 z4 z2[Q:1/4=100] [B,G]2 | B2 A2 B2 [DG]2 | [EA]2 [DF]2 [B,G]2 G2 | z4 B2 z2 | [Fd]6 [Dd]2 | %5
 [Ec]2 [DA]2 [DB]2 [DG]2 | [Dc]2 [DB]2 [DA]2 [DF]2 | z4 z2 A2 |[M:7/4] [B,G]6 z2 z2 z4 | %9
[M:4/4] [CG]4 [B,G]4 |] %10
V:2
 z4 z2 [G,,G,]2 | [G,D]2 [D,F,D]2 [G,D]2 [B,,G,]2 | [C,C]2 [D,A,]2 [G,,G,]2 [G,B,D]2 | %3
 [F,A,D]2 [D,F,D]2 [G,D]2 [E,G,]2 | [D,A,]6 [B,,G,]2 | [C,G,]2 [D,F,]2 [G,,G,]2 [B,,G,]2 | %6
 [A,,F,]2 [G,,G,]2 [D,F,]2 [D,A,]2 | [C,F,]2 [B,,G,]2 [C,G,]2 .[D,F,D]2 | %8
[M:7/4] [G,,G,]6 z2 z2 z4 |[M:4/4] [C,E,]4 [G,,G,]4 |] %10
V:3
 x8 | x8 | x8 | d2 A2 z F, [G^c]2 | x8 | x8 | x8 | [DA]2 [Dd]2 [Ec]2 z C |[M:7/4] x14 | %9
[M:4/4] x8 |] %10

